X:1
T:Going On
T:Going On
T:Charles King Langley, Sr.
T:Jessie Brown Pounds, 1900
T:Public Domain Courtesy of the Cyber Hymnal™
T:Public Domain Courtesy of the Cyber Hymnal™
C:Charles King Langley, Sr.
Z:Public Domain
Z:Courtesy of the Cyber Hymnal™
%%score ( 1 2 ) ( 3 4 )
L:1/8
Q:1/4=105
M:4/4
K:Db
V:1 treble 
V:2 treble 
V:3 bass 
V:4 bass 
V:1
 A2 | !>![Fd]2 [Gd]>[Gd] !>![Fd]2 F>G | !>!A2 F2 D2 F>A | !>![Fd]2 !>![Gd]2 !>![Ad]2 !>![Ed]2 | %4
w: 1.~The|fires of the sun shall be|quenched at last, And the|stead- fast stars be|
w: 2.~As|souls that re- mem- ber and|feel and thrill, We shall|live when seas are|
w: 3.~From|glo- ry to glo- ry our|path shall be, And from|grace to per- fect|
 [Ec]6 A2 | !>![Fd]2 [Gd]>[Gd] [Fd]2 F>G | A2 F2 [Fd]2 [Ge]>[Fd] | [Ec]2 [CE]>[CE] [D=G] [DB]3 | %8
w: gone; But|souls of the ran- somed shall|live in strength, And they|still shall be go- ing|
w: dry; As|sep- a- rate be- ings, to|love and will, We shall|live, nev- er- more to|
w: grace; Through|all the wide years of e-|ter- ni- ty, We shall|look on our dear Lord’s|
 (!fermata!z2 !fermata![ca]2) x6 ||"^Refrain" [GB]>[Gc] | [Fd]4- [Fd]2 [DF]>[EG] | %11
w: |* on.|Go- * ing on,|
w: |* die.|Go- * ing on,|
w: |* face.|Go- * ing on,|
 [FA]4- [FA]2 [FA]2 | [GB]2 [GB]>[GB] [Gc] [Fd]3 | [Ge]4- !fermata![Ge]2 [GA]2 | %14
w: go- * ing|on, They still shall be|go- * ing|
w: go- * ing|on, They still shall be|go- * ing|
w: go- * ing|on, We still shall be|go- * ing|
 [Fd]2 [DF]>[EG] [FA]2 [FA]>[FA] | [GB]2 [AB]2 !fermata![=Ge]2 [Gd]2 | [Ac]2 [Ac]>[Ac] [Gd] [Ge]3 | %17
w: on; For- ev- er and aye,|through e- ter- nal|day, They still shall be|
w: on; For- ev- er and aye,|through e- ter- nal|day, They still shall be|
w: on; For- ev- er and aye,|through e- ter- nal|day, We still shall be|
 d4- !fermata![Fd]2 |] %18
w: go- ing|
w: go- ing|
w: go- ing|
V:2
 A2 | x6 F>G | A2 F2 D2 F>A | x8 | x6 (EG) | x6 F>G | A2 F2 x4 | x8 | [CA]6 ce x2 || x2 | x8 | x8 | %12
 x8 | x8 | x8 | x8 | x8 | F2 DG x2 |] %18
V:3
 A,2 | !>![D,A,]2 [D,B,]>[D,__B,] !>![D,A,]2 F,>G, | !>!A,2 F,2 D,2 F,>A, | %3
w: ~|~ ~ ~ ~ ~ ~|~ ~ ~ ~ ~|
 !>![D,A,]2 !>![E,A,]2 (!>!A,D) !>![=G,B,]2 | A,6 [A,C]2 | %5
w: ~ ~ ~ * ~|~ ~|
 !>![D,D]2 [D,B,]>[D,__B,] [D,A,]2 F,>G, | A,2 F,2 [D,A,]2 [C,A,]>[D,A,] | %7
w: ~ ~ ~ ~ ~ ~|~ ~ ~ ~ ~|
 [E,A,]2 [E,A,]>[E,A,] [E,B,] [E,=G,]3 | !fermata!z2 x8 || z2 | z2 [D,D]>[D,D] [D,D]2 z2 | %11
w: ~ ~ ~ ~ ~|||~ ~ Go-|
 z2 [D,D]>[D,D] [D,D]2 [D,D]2 | [G,D]2 [G,D]>[G,D] [E,A,] [D,A,]3 | %13
w: ing on, go- ing|on ~ ~ ~ ~|
 [A,,A,]2 [C,A,][E,A,] !fermata![A,C]2 [A,C]2 | (DA,) [D,A,]>[D,A,] [D,D]2 [D,D]>[D,D] | %15
w: ~ ~ ~ go- ing|on; * ~ ~ ~ ~ ~|
 [G,D]2 [F,=D]2 !fermata![E,B,E]2 [E,E]2 | [A,E]2 [A,E]>[A,E] [A,,E] [A,,C]3 | %17
w: ~ ~ ~ ~|~ ~ ~ ~ ~|
 A,2 F,B, !fermata![D,A,]2 |] %18
w: ~ ~ go- ing~on.|
V:4
 A,2 | x6 F,>G, | A,2 F,2 D,2 F,>A, | x4 F,2 x2 | A,6 x2 | x6 F,>G, | A,2 F,2 x4 | x8 | %8
 [A,,A,]6 E,C, A,,2 || x2 | x8 | x8 | x8 | x8 | D,2 x6 | x8 | x8 | D,4- x2 |] %18

